Cawnonical Mono-Glyph Icon Suite/packaged/Cawnonical Mono-Glyph Icon Suite Red/apps/glyphs/granatier.svg

<?xml version="1.0" encoding="utf-8"?>
<svg height="48" viewBox="0 -960 960 960" width="48" xmlns="http://www.w3.org/2000/svg">
  <path fill="rgb(255, 60, 50)" d="M 867 -572 C 854.5 -572 844.043 -576.253 835.63 -584.76 C 827.21 -593.273 823 -603.44 823 -615.26 C 823 -627.087 827.21 -637.333 835.63 -646 C 844.043 -654.667 854.5 -659 867 -659 L 907 -659 C 918.753 -659 928.857 -654.68 937.31 -646.04 C 945.77 -637.393 950 -627.06 950 -615.04 C 950 -603.013 945.77 -592.833 937.31 -584.5 C 928.857 -576.167 918.753 -572 907 -572 L 867 -572 Z M 608.04 -830 C 596.013 -830 585.833 -834.21 577.5 -842.63 C 569.167 -851.043 565 -861.5 565 -874 L 565 -914 C 565 -925.753 569.253 -935.857 577.76 -944.31 C 586.273 -952.77 596.44 -957 608.26 -957 C 620.087 -957 630.333 -952.77 639 -944.31 C 647.667 -935.857 652 -925.753 652 -914 L 652 -874 C 652 -861.5 647.68 -851.043 639.04 -842.63 C 630.393 -834.21 620.06 -830 608.04 -830 Z M 776 -782.82 C 766.667 -792.033 762 -802.367 762 -813.82 C 762 -825.273 766.667 -835.667 776 -845 L 804 -873 C 813.187 -881.667 823.483 -886 834.89 -886 C 846.297 -886 856.667 -881.667 866 -873 C 874.667 -863.813 879 -853.517 879 -842.11 C 879 -830.703 874.667 -820.333 866 -811 L 838 -783 C 828.813 -773.667 818.517 -769 807.11 -769 C 795.703 -769 785.333 -773.607 776 -782.82 Z M 669.33 -634 C 664.663 -634 660.61 -634.5 657.17 -635.5 C 653.723 -636.5 650.043 -638.173 646.13 -640.52 L 609 -662 C 599.667 -666.667 590.16 -667.61 580.48 -664.83 C 570.793 -662.043 563.633 -656.433 559 -648 L 556 -642 L 590 -623 C 606.193 -612.067 616.91 -597.5 622.15 -579.3 C 627.383 -561.1 625 -543.333 615 -526 L 592 -484 C 606.333 -459.333 617.25 -433.5 624.75 -406.5 C 632.25 -379.5 636 -351.667 636 -323 C 636 -236.167 605.51 -162.627 544.53 -102.38 C 483.55 -42.127 409.727 -12 323.06 -12 C 236.393 -12 162.883 -42.487 102.53 -103.46 C 42.177 -164.44 12 -238.273 12 -324.96 C 12 -411.653 42.43 -485.167 103.29 -545.5 C 164.143 -605.833 238.383 -636 326.01 -636 L 328 -636 L 351 -678 C 361.267 -695.24 375.833 -706.217 394.7 -710.93 C 413.567 -715.643 431.667 -713.333 449 -704 L 481 -685 L 485 -692 C 502.333 -721.333 527.167 -740.167 559.5 -748.5 C 591.833 -756.833 623 -753 653 -737 L 690.09 -714.96 C 696.697 -711.653 702 -706.687 706 -700.06 C 710 -693.433 712 -685.633 712 -676.66 C 712 -664.973 707.803 -654.94 699.41 -646.56 C 691.017 -638.187 680.99 -634 669.33 -634 Z"/>
</svg>

<svg height="48" viewBox="0 -960 960 960" width="48" xmlns="http://www.w3.org/2000/svg"><path fill="rgb(255, 60, 50)" d="m323.25-99q92.75 0 159.25-65.86 66.5-65.87 66.5-158.44 0-30.71-9.5-62.31t-26.5-59.39l-24-37 43-74-113-65-40.57 72h-58.69q-92.74 0-157.24 67.5-64.5 67.5-64.5 156.5 0 95.07 65.74 160.54 65.74 65.46 159.51 65.46zm543.75-473q-18.75 0-31.37-12.76-12.63-12.77-12.63-30.5 0-17.74 12.63-30.74 12.62-13 31.37-13h40q17.63 0 30.31 12.96 12.69 12.97 12.69 31 0 18.04-12.69 30.54-12.68 12.5-30.31 12.5zm-258.96-258q-18.04 0-30.54-12.63-12.5-12.62-12.5-31.37v-40q0-17.63 12.76-30.31 12.77-12.69 30.5-12.69 17.74 0 30.74 12.69 13 12.68 13 30.31v40q0 18.75-12.96 31.37-12.97 12.63-31 12.63zm167.96 47.18q-14-13.82-14-31t14-31.18l28-28q13.78-13 30.89-13t31.11 13q13 13.78 13 30.89t-13 31.11l-28 28q-13.78 14-30.89 14t-31.11-13.82zm-106.67 148.82q-7 0-12.16-1.5-5.17-1.5-11.04-5.02l-37.13-21.48q-14-7-28.52-2.83-14.53 4.18-21.48 16.83l-3 6 34 19q24.29 16.4 32.15 43.7 7.85 27.3-7.15 53.3l-23 42q21.5 37 32.75 77.5t11.25 83.5q0 130.25-91.47 220.62-91.47 90.38-221.47 90.38t-220.53-91.46q-90.53-91.47-90.53-221.5 0-130.04 91.29-220.54 91.28-90.5 222.72-90.5h1.99l23-42q15.4-25.86 43.7-32.93 28.3-7.07 54.3 6.93l32 19 4-7q26-44 74.5-56.5t93.5 11.5l37.09 22.04q9.91 4.96 15.91 14.9 6 9.94 6 23.4 0 17.53-12.59 30.1-12.59 12.56-30.08 12.56z"/></svg>
